X: 1
T:Pagans and Puritans
M:6/8
C:Stacy Trevenon
S:Bruno
N:obtain permission to perform from Pipe \& Bowl
A:Chipping Under Oakwood
O:Renaissance Pleasure Faire
R:J
%P:A.(AB)$^3$.A
P:A(AB)3A
I:speed 200
K:D
P:A
   A | D2 F  G2 B  | A>FG A2 A  | e2 d  =c>de | Adc dAF |\
       D>EF  G2 B  | A>FG A2 A  | e2 d  =c>de | Adc d2  ||\
P:B
|: d | g>=fe d>e=f | g>ed =c>de | e>=fe e>Be  | Bdc d2  :|
